X:2
T:GB/7a/2 Jolly Fellows that Follow the Plough-0
%%VWML:GB-7a-2-0
F:http://www.vwml.org/record/GB/7a/2
T:Version 1 of 2
C:Mr. Ede (c. 40), Bosham, Sussex IV. 07
C:Transcribed by Simon Furey and Lewis Jones
L:1/4
Q:1/4=132
M:3/4
I:linebreak $
K:F
c | F G A | B d d | c F F | F2 F | F G A | B A B | G c d | c2 c |$ d d c | d f d | c A c | f e f | d c A | G c B | A F F | F2 |]

